Themes/OneUI/assets/svg/sec_ic_settings_remotesupport.svg

<?xml version="1.0" encoding="UTF-8" standalone="no"?>
<svg
   width="28.000021"
   height="28.000021"
   viewBox="0 0 28.000021 28.000021"
   fill="none"
   version="1.1"
   id="svg2140"
   sodipodi:docname="sec_ic_settings_remotesupport.svg"
   xmlns:inkscape="http://www.inkscape.org/namespaces/inkscape"
   xmlns:sodipodi="http://sodipodi.sourceforge.net/DTD/sodipodi-0.dtd"
   xmlns="http://www.w3.org/2000/svg"
   xmlns:svg="http://www.w3.org/2000/svg">
  <sodipodi:namedview
     id="namedview2142"
     pagecolor="#ffffff"
     bordercolor="#666666"
     borderopacity="1.0"
     inkscape:showpageshadow="2"
     inkscape:pageopacity="0.0"
     inkscape:pagecheckerboard="0"
     inkscape:deskcolor="#d1d1d1" />
  <g
     clip-path="url(#clip0_1_1363)"
     id="g2133">
    <path
       d="M 24.856,3.14401 C 23.13,1.52161 20.7739,0.601214 18.1738,0.256914 15.6907,-0.072186 14,0.00881404 14,0.00881404 c 0,0 -1.691,-0.08100004 -4.17421,0.24809996 -2.6,0.3443 -4.956,1.264696 -6.6815,2.887096 -1.6228,1.7258 -2.543099,4.0819 -2.887599,6.6819 -0.3291004,2.48299 -0.2478004,4.17399 -0.2478004,4.17399 0,0 -0.0813,1.6908 0.2478004,4.174 0.3445,2.5998 1.264799,4.9561 2.887399,6.6819 1.7257,1.6226 4.0817,2.5428 6.6817,2.8875 C 12.309,28.0722 14,27.9912 14,27.9912 c 0,0 1.6907,0.081 4.1738,-0.2479 2.6001,-0.3447 4.9562,-1.2649 6.6818,-2.8875 1.623,-1.7258 2.5432,-4.0821 2.8877,-6.6819 0.3289,-2.4832 0.2479,-4.174 0.2479,-4.174 0,0 0.081,-1.691 -0.2479,-4.17399 -0.3445,-2.6 -1.2647,-4.9561 -2.8873,-6.6819 z"
       fill="#30c5e5"
       id="path2129" />
    <path
       d="m 18.2932,21.5759 c 0.8846,0 1.6042,-0.7195 1.6042,-1.6041 v -0.2154 c 0.7562,-0.2613 1.3007,-0.9772 1.3007,-1.8206 v -1.4437 -1.6427 -2.2265 c 0,-3.96918 -3.2285,-7.19858 -7.1976,-7.19858 -3.9701,0 -7.1986,3.2294 -7.1986,7.19858 v 2.2265 1.6427 1.4437 c 0,1.0615 0.8635,1.926 1.925,1.926 h 0.1265 c 1.0615,0 1.9259,-0.8645 1.9259,-1.926 v -3.0864 c 0,-1.0624 -0.8644,-1.9259 -1.9259,-1.9259 H 8.7269 c -0.1916,0 -0.3759,0.0294 -0.55,0.0816 v -0.3822 c 0,-3.21108 2.6116,-5.82358 5.8236,-5.82358 3.211,0 5.8226,2.6125 5.8226,5.82358 v 0.3822 c -0.1741,-0.0522 -0.3584,-0.0816 -0.55,-0.0816 h -0.1265 c -1.0615,0 -1.925,0.8635 -1.925,1.9259 v 3.0864 c 0,0.8434 0.5454,1.5593 1.3008,1.8206 v 0.2154 c 0,0.1265 -0.1027,0.2291 -0.2292,0.2291 h -3.3651 c -0.0605,0 -0.1201,-0.0238 -0.1622,-0.0669 L 14.138,19.5061 c -0.2686,-0.2686 -0.704,-0.2686 -0.9717,0 -0.2686,0.2686 -0.2686,0.704 0,0.9726 l 0.627,0.627 c 0.3034,0.3034 0.7058,0.4702 1.1348,0.4702 z"
       fill="#ffffff"
       id="path2131" />
  </g>
  <defs
     id="defs2138">
    <clipPath
       id="clip0_1_1363">
      <rect
         width="28"
         height="28"
         fill="#ffffff"
         id="rect2135"
         x="0"
         y="0" />
    </clipPath>
  </defs>
</svg>

<svg width="28" height="28" viewBox="0 0 28 28" fill="none" xmlns="http://www.w3.org/2000/svg">
<g clip-path="url(#clip0_1_1363)">
<path d="M24.856 3.14401C23.13 1.52161 20.7739 0.601214 18.1738 0.256914C15.6907 -0.072186 14 0.00881404 14 0.00881404C14 0.00881404 12.309 -0.072186 9.82579 0.256914C7.22579 0.601214 4.86979 1.52161 3.14429 3.14401C1.52149 4.86981 0.601191 7.22591 0.256691 9.82591C-0.0724094 12.3089 0.0088906 13.9999 0.0088906 13.9999C0.0088906 13.9999 -0.0724094 15.6907 0.256691 18.1739C0.601191 20.7737 1.52149 23.13 3.14409 24.8558C4.86979 26.4784 7.22579 27.3986 9.82579 27.7433C12.309 28.0722 14 27.9912 14 27.9912C14 27.9912 15.6907 28.0722 18.1738 27.7433C20.7739 27.3986 23.13 26.4784 24.8556 24.8558C26.4786 23.13 27.3988 20.7737 27.7433 18.1739C28.0722 15.6907 27.9912 13.9999 27.9912 13.9999C27.9912 13.9999 28.0722 12.3089 27.7433 9.82591C27.3988 7.22591 26.4786 4.86981 24.856 3.14401Z" fill="#30C5E5"/>
<path d="M18.2932 21.5759C19.1778 21.5759 19.8974 20.8564 19.8974 19.9718V19.7564C20.6536 19.4951 21.1981 18.7792 21.1981 17.9358V16.4921V14.8494V12.6229C21.1981 8.65372 17.9696 5.42432 14.0005 5.42432C10.0304 5.42432 6.8019 8.65372 6.8019 12.6229V14.8494V16.4921V17.9358C6.8019 18.9973 7.6654 19.8618 8.7269 19.8618H8.8534C9.9149 19.8618 10.7793 18.9973 10.7793 17.9358V14.8494C10.7793 13.787 9.9149 12.9235 8.8534 12.9235H8.7269C8.5353 12.9235 8.351 12.9529 8.1769 13.0051V12.6229C8.1769 9.41182 10.7885 6.79932 14.0005 6.79932C17.2115 6.79932 19.8231 9.41182 19.8231 12.6229V13.0051C19.649 12.9529 19.4647 12.9235 19.2731 12.9235H19.1466C18.0851 12.9235 17.2216 13.787 17.2216 14.8494V17.9358C17.2216 18.7792 17.767 19.4951 18.5224 19.7564V19.9718C18.5224 20.0983 18.4197 20.2009 18.2932 20.2009H14.9281C14.8676 20.2009 14.808 20.1771 14.7659 20.134L14.138 19.5061C13.8694 19.2375 13.434 19.2375 13.1663 19.5061C12.8977 19.7747 12.8977 20.2101 13.1663 20.4787L13.7933 21.1057C14.0967 21.4091 14.4991 21.5759 14.9281 21.5759H18.2932Z" fill="white"/>
</g>
<defs>
<clipPath id="clip0_1_1363">
<rect width="28" height="28" fill="white"/>
</clipPath>
</defs>
</svg>
